X:138
T:Woodycock
M:6/8
L:1/8
K:F
"Dm" d2 d f>ed | "Am" c2 A c2 c | "Dm" d2 d f>ed | "Am" cAA A3 |
"Bb" d2 d f>ed | "F" c2 A c2 c | "Bb" d2 d f>ed | "F" cAA A2 d ||
|: "F" c2 B c>BA | "Gm" BGG G2 G | "Am" AAA A>Bc | "Dm" dDD D2 d |
"F" c2 B c>BA | "Gm" BGG G2 G | "Am" AAA A>Bc | [1 "Dm" dDD D2 d :| [2 "Dm" dDD D3 |]
%
%
